!!!COM: Mozart, Wolfgang Amadeus
!!!OTL: Musikalische Würfelspiele, Kontre-Tänze
!!!SCA: K<sup>6</sup> Anh. C30.01 (K<sup>3</sup> Anh. 294d)
**kern	**kern
*staff2	*staff2
*clefF4	*clefG2
*M2/4	*M2/4
*MM110	*MM110
*>[A,A1,A,A2,B]	*>[A,A1,A,A2,B]
*>norep[A,A2,B]	*>norep[A,A2,B]
*>A	*>A
=165	=165
4C	8cc
.	16ee
.	16cc
4r	8g
.	8g
=81	=81
4C	8cc
.	8g
4r	8cc
.	8ee
=131	=131
16GG	8ff
16D	.
16BB	4dd
16D	.
16GG	.
16D	.
16BB	8b
16D	.
=15	=15
4C	16cc
.	16ee
.	16gg
.	16ee
4C	8cc
.	8cc
=147	=147
4D	16dd
.	16ee
.	16ff#
.	16gg
4F#	16aa
.	16ff#
.	16ee
.	16dd
=39	=39
4BB 4G	16gg
.	16ff#
.	16ee
.	16dd
4r	16cc
.	16b
.	16a
.	16g
=73	=73
4C	8ee
.	8gg
4D	8ff#
.	8aa
=102	=102
*>A1	*>A1
16BB	4g 4b 4gg
16GG	.
16BB	.
16D	.
16G	4r
16F	.
16E	.
16D	.
=102:|!	=102:|!
*>A2	*>A2
16BB	4g 4b 4gg
16GG	.
16BB	.
16D	.
16GG	4r
16AA	.
16BB	.
16C#	.
=4||	=4||
*>B	*>B
4D	8d
.	8dd
4C 4D	8ff#
.	8aa
=176	=176
16BB	8gg
16GG	.
16BB	8bb
16D	.
16G	4gg
16D	.
16BB	.
16GG	.
=26	=26
4C	8ee
.	8cc
4C	8gg
.	8ee
=51	=51
4GG	16b
.	16gg
.	16dd
.	16b
16G	4g
16F	.
16E	.
16D	.
=128	=128
16C	8g
16G	.
16E	4cc
16G	.
16C	.
16G	.
16E	8ee
16G	.
=24	=24
4C	16ccc
.	16bb
.	16aa
.	16gg
4r	16ff
.	16ee
.	16dd
.	16cc
=154	=154
4G	8ff
.	8dd
4GG	8cc
.	8b
=65	=65
4C	8cc
.	8cc
4CC	4cc
==	==
*-	*-
